X:1
T:We Are Going Down the Valley
T:James Henry Fillmore, Sr.
T:We Are Going Down the Valley
T:Public Domain
T:Public Domain
C:James Henry Fillmore, Sr.
Z:Public Domain
%%score ( 1 2 ) ( 3 4 )
L:1/8
M:4/4
K:D
V:1 treble 
V:2 treble 
V:3 bass 
V:4 bass 
V:1
 D[DE] | [DF][DF][DF][DF] [DF][DF] [DG]>[DE] | [DF]6 DD | [CE][CE][CE][CE] [CE][CE] [CF]>[CE] | %4
w: 1.~We are|ing down the vall- ey one by one,|With our fac-|the set- ting of the sun; Down the|
w: 2.~We are|ing down the val- ley one by one,|When the la-|the wear- y day are done; One by|
w: 3.~We are|ing down the val- ley one by one,|Hu- man com-|or I will there have none; But a|
w: 4.~We are|ing down the val- ley one by one,|Yet be- fore|dowed vale may come the dawn, When with|
 D6 D[DE] | [DF][DF][DF][DF] [DF][DF] [DG]>[DE] | [DF]6 [DF][DF] | %7
w: vall- ey where|ful cy- press grows, Where the stream of|death in si-|
w: one, the cares|for- ev- er past, We shall stand up-|on the ri-|
w: ten- der hand|us lest we fall: Christ is go- ing|down the val-|
w: rap- ture we|ther in the sky; “We shall all be|changed,” but some|
 [CE][CE][CE][CE] [CA][CA] [CB]>[D^G] | [CA]6 ||"^Refrain" [EG][EG] | %10
w: lence on- ward flows. * * * *|||
w: ver brink at last. We are go- ing|down|the val-|
w: ley with us all. * * * *|||
w: shall ne- ver die! * * * *|||
 [DF][DF] [DF]>[DF] [DF]<[DF] z2 | [DG][DG] [DG]>[DG] [DG]<[DG] z2 | %12
w: ||
w: ley, Go- ing down the val-|ley, Go- ing tow’rd the set-|
w: ||
w: ||
 [DF][DF][DF][DF] [DA][DA][DF][DF] | [CE]6 [DF][EG] | [FA][FA] [FA]>[FA] [FA]<[FA] z2 | %15
w: |||
w: ting of the sun; We are go- ing|down the val-|ley, Go- ing down the va-|
w: |||
w: |||
 [GB][GB] [GB]>[GB] [GB]<[GB] z2 | [FA][FA][DF][DF] [CE]<[CE] [EG]>[EG] | [DF]6 |] %18
w: |||
w: lley, Go- ing down the val-|ley one by one. * * * *||
w: |||
w: |||
V:2
 D x | x8 | x6 DD | x8 | D6 D x | x8 | x8 | x8 | x6 || x2 | x8 | x8 | x8 | x8 | x8 | x8 | x8 | %17
w: go-||es tow’rd||the mourn-|||||||||||||
w: go-||bors of||of earth|||||||||||||
w: go-||rade you||will guide|||||||||||||
w: go-||the sha-||shall ga-|||||||||||||
 x6 |] %18
w: |
w: |
w: |
w: |
V:3
 [D,F,][D,G,] | [D,A,][D,A,][D,A,][D,A,] [D,A,][D,A,] [D,B,]>[D,^G,] | [D,A,]6 [D,F,][D,F,] | %3
 [A,,A,][A,,A,][A,,A,][A,,A,] [A,,A,][A,,A,] [A,,A,]>[A,,G,] | [D,F,]6 [D,F,][D,G,] | %5
 [D,A,][D,A,][D,A,][D,A,] [D,A,][D,A,] [D,B,]>[D,^G,] | [D,A,]6 [D,A,][D,A,] | %7
 [E,A,][E,A,][E,A,][E,A,] [E,A,][E,A,] [E,^G,]>[E,B,] | [A,,A,]6 || [A,,A,][A,,A,] | %10
 [D,A,][D,A,] [D,A,]>[D,A,] [D,A,]<[D,A,] z2 | [G,B,][G,B,] [G,B,]>[G,B,] [G,B,]<[G,B,] z2 | %12
 [D,A,][D,A,][D,A,][D,A,] [F,A,][F,A,][D,A,][D,A,] | [A,,A,]6 [D,A,][D,A,] | %14
 [D,D][D,D] [D,D]>[D,D] [D,D]<[D,D] z2 | [G,D][G,D] [G,D]>[G,D] [G,D]<[G,D] z2 | %16
 [A,D][A,D]A,A, [A,,A,]<[A,,A,] [A,,A,]>[A,,A,] | [D,A,]6 |] %18
V:4
 x2 | x8 | x8 | x8 | x8 | x8 | x8 | x8 | x6 || x2 | x8 | x8 | x8 | x8 | x8 | x8 | x2 A,A, x4 | %17
 x6 |] %18

